file/samsung.svg

<svg clip-rule="evenodd" fill-rule="evenodd" stroke-linejoin="round" stroke-miterlimit="1.41421" viewBox="0 0 560 400" xmlns="http://www.w3.org/2000/svg"><g fill="#034ea2" fill-rule="nonzero" transform="matrix(1.67785 0 0 1.67785 28.3221 160.126)"><path d="m20.78 32.93c.41 1.03.28 2.35.08 3.15-.35 1.42-1.31 2.87-4.15 2.87-2.66 0-4.28-1.54-4.28-3.86v-4.13h-11.43v3.28c0 9.5 7.47 12.37 15.48 12.37 7.7 0 14.04-2.62 15.05-9.73.52-3.68.14-6.09-.04-6.98-1.8-8.92-17.96-11.58-19.17-16.57-.168-.736-.182-1.499-.04-2.24.3-1.37 1.23-2.86 3.89-2.86 2.5 0 3.95 1.54 3.95 3.86v2.64h10.63v-3c0-9.28-8.33-10.73-14.35-10.73-7.58 0-13.77 2.51-14.9 9.46-.3 1.9-.35 3.6.1 5.74 1.85 8.7 16.98 11.22 19.18 16.73"/><path d="m46.6 2.36-7.9 42.59h11.51l5.83-38.65h.24l5.67 38.65h11.45l-7.85-42.6zm64.35 0-5.25 32.56h-.25l-5.24-32.56h-17.37l-.94 42.59h10.66l.26-38.29h.24l7.11 38.29h10.81l7.12-38.28h.23l.27 38.28h10.65l-.94-42.6z"/><path d="m20.78 32.93c.41 1.03.28 2.35.08 3.15-.35 1.42-1.31 2.87-4.15 2.87-2.66 0-4.28-1.54-4.28-3.86v-4.13h-11.43v3.28c0 9.5 7.47 12.37 15.48 12.37 7.7 0 14.04-2.62 15.05-9.73.52-3.68.14-6.09-.04-6.98-1.8-8.92-17.96-11.58-19.17-16.57-.168-.736-.182-1.499-.04-2.24.3-1.37 1.23-2.86 3.89-2.86 2.5 0 3.95 1.54 3.95 3.86v2.64h10.63v-3c0-9.28-8.33-10.73-14.35-10.73-7.58 0-13.77 2.51-14.9 9.46-.3 1.9-.35 3.6.1 5.74 1.85 8.7 16.98 11.22 19.18 16.73" transform="translate(138.47 -.08)"/><path d="m195 38.57c2.96 0 3.87-2.04 4.08-3.08.09-.46.1-1.08.1-1.63v-31.5h10.78v30.53c.002.934-.031 1.868-.1 2.8-.75 7.95-7.03 10.53-14.86 10.53-7.84 0-14.12-2.58-14.87-10.53-.03-.42-.11-2.02-.1-2.8v-30.54h10.78v31.5c-.01.56.01 1.18.1 1.64.2 1.04 1.12 3.08 4.09 3.08m52.08-36.21.58 33.43h-.23l-9.8-33.43h-15.8v42.14h10.47l-.58-34.59h.23l10.51 34.59h15.17v-42.14zm36.75 35.77c3.08 0 4.16-1.95 4.35-3.1.09-.47.1-1.07.1-1.6v-6.2h-4.37v-6.2h15.09v11.42c0 .8-.02 1.38-.15 2.8-.7 7.76-7.43 10.53-14.98 10.53s-14.27-2.77-14.98-10.53c-.12-1.42-.15-2-.15-2.8v-17.92c0-.76.1-2.1.18-2.8.95-7.97 7.4-10.53 14.95-10.53s14.17 2.54 14.95 10.52c.14 1.36.1 2.8.1 2.8v1.43h-10.74v-2.39s0-1-.13-1.62c-.2-.94-1-3.1-4.26-3.1-3.1 0-4.01 2.05-4.24 3.1-.13.56-.18 1.32-.18 2.01v19.47c0 .54.02 1.14.1 1.62.2 1.14 1.28 3.09 4.36 3.09"/></g></svg>

<?xml version="1.0" encoding="UTF-8" standalone="no"?>
<!DOCTYPE svg PUBLIC "-//W3C//DTD SVG 1.1//EN" "http://www.w3.org/Graphics/SVG/1.1/DTD/svg11.dtd">
<svg width="100%" height="100%" viewBox="0 0 560 400" version="1.1" xmlns="http://www.w3.org/2000/svg" xmlns:xlink="http://www.w3.org/1999/xlink" xml:space="preserve" xmlns:serif="http://www.serif.com/" style="fill-rule:evenodd;clip-rule:evenodd;stroke-linejoin:round;stroke-miterlimit:1.41421;">
    <g transform="matrix(1.67785,0,0,1.67785,28.3221,160.126)">
        <path id="S" d="M20.78,32.93C21.19,33.96 21.06,35.28 20.86,36.08C20.51,37.5 19.55,38.95 16.71,38.95C14.05,38.95 12.43,37.41 12.43,35.09L12.43,30.96L1,30.96L1,34.24C1,43.74 8.47,46.61 16.48,46.61C24.18,46.61 30.52,43.99 31.53,36.88C32.05,33.2 31.67,30.79 31.49,29.9C29.69,20.98 13.53,18.32 12.32,13.33C12.152,12.594 12.138,11.831 12.28,11.09C12.58,9.72 13.51,8.23 16.17,8.23C18.67,8.23 20.12,9.77 20.12,12.09L20.12,14.73L30.75,14.73L30.75,11.73C30.75,2.45 22.42,1 16.4,1C8.82,1 2.63,3.51 1.5,10.46C1.2,12.36 1.15,14.06 1.6,16.2C3.45,24.9 18.58,27.42 20.78,32.93" style="fill:rgb(3,78,162);fill-rule:nonzero;"/>
        <path d="M46.6,2.36L38.7,44.95L50.21,44.95L56.04,6.3L56.28,6.3L61.95,44.95L73.4,44.95L65.55,2.35L46.6,2.36ZM110.95,2.36L105.7,34.92L105.45,34.92L100.21,2.36L82.84,2.36L81.9,44.95L92.56,44.95L92.82,6.66L93.06,6.66L100.17,44.95L110.98,44.95L118.1,6.67L118.33,6.67L118.6,44.95L129.25,44.95L128.31,2.35L110.95,2.36Z" style="fill:rgb(3,78,162);fill-rule:nonzero;"/>
        <g id="S1" serif:id="S" transform="matrix(1,0,0,1,138.47,-0.08)">
            <path d="M20.78,32.93C21.19,33.96 21.06,35.28 20.86,36.08C20.51,37.5 19.55,38.95 16.71,38.95C14.05,38.95 12.43,37.41 12.43,35.09L12.43,30.96L1,30.96L1,34.24C1,43.74 8.47,46.61 16.48,46.61C24.18,46.61 30.52,43.99 31.53,36.88C32.05,33.2 31.67,30.79 31.49,29.9C29.69,20.98 13.53,18.32 12.32,13.33C12.152,12.594 12.138,11.831 12.28,11.09C12.58,9.72 13.51,8.23 16.17,8.23C18.67,8.23 20.12,9.77 20.12,12.09L20.12,14.73L30.75,14.73L30.75,11.73C30.75,2.45 22.42,1 16.4,1C8.82,1 2.63,3.51 1.5,10.46C1.2,12.36 1.15,14.06 1.6,16.2C3.45,24.9 18.58,27.42 20.78,32.93" style="fill:rgb(3,78,162);fill-rule:nonzero;"/>
        </g>
        <path d="M195,38.57C197.96,38.57 198.87,36.53 199.08,35.49C199.17,35.03 199.18,34.41 199.18,33.86L199.18,2.36L209.96,2.36L209.96,32.89C209.962,33.824 209.929,34.758 209.86,35.69C209.11,43.64 202.83,46.22 195,46.22C187.16,46.22 180.88,43.64 180.13,35.69C180.1,35.27 180.02,33.67 180.03,32.89L180.03,2.35L190.81,2.35L190.81,33.85C190.8,34.41 190.82,35.03 190.91,35.49C191.11,36.53 192.03,38.57 195,38.57M247.08,2.36L247.66,35.79L247.43,35.79L237.63,2.36L221.83,2.36L221.83,44.5L232.3,44.5L231.72,9.91L231.95,9.91L242.46,44.5L257.63,44.5L257.63,2.36L247.08,2.36ZM283.83,38.13C286.91,38.13 287.99,36.18 288.18,35.03C288.27,34.56 288.28,33.96 288.28,33.43L288.28,27.23L283.91,27.23L283.91,21.03L299,21.03L299,32.45C299,33.25 298.98,33.83 298.85,35.25C298.15,43.01 291.42,45.78 283.87,45.78C276.32,45.78 269.6,43.01 268.89,35.25C268.77,33.83 268.74,33.25 268.74,32.45L268.74,14.53C268.74,13.77 268.84,12.43 268.92,11.73C269.87,3.76 276.32,1.2 283.87,1.2C291.42,1.2 298.04,3.74 298.82,11.72C298.96,13.08 298.92,14.52 298.92,14.52L298.92,15.95L288.18,15.95L288.18,13.56C288.18,13.56 288.18,12.56 288.05,11.94C287.85,11 287.05,8.84 283.79,8.84C280.69,8.84 279.78,10.89 279.55,11.94C279.42,12.5 279.37,13.26 279.37,13.95L279.37,33.42C279.37,33.96 279.39,34.56 279.47,35.04C279.67,36.18 280.75,38.13 283.83,38.13" style="fill:rgb(3,78,162);fill-rule:nonzero;"/>
    </g>
</svg>
